X: 1
T: Miss Ramsey
M: 4/4
L: 1/8
R: reel
K: Gmaj
~G3B dB~B2|dBeB dBAB|~G3B dB~B2|1 gedB AcBA:|2  gedB ABdg||
|:bg~g2 aged|eaag fddg|bgag gede|1 gedB ABdg:|2 gedB AcBA||
